X: 21
T:Conset Meirionnydd
T:The Conceit of Merioneth
M:6/8
L:1/8
Q:130
S:Cadw Twmpath Collection
R:Jig
A:Wales
Z:brian_martin12345@yahoo.com
K:Em
Ggg fed|Gee edg|Ggg fed|Be^de2=d|
BGD BGD|Gce dBG|gbg fed|Be^de2z:||
dBB gab|afd fga|dBB gab|afd def|
ggg fed|Gee edg|Ggg fed|Be^de2z:||
